X:007 
T:Bacon and Beans* (hornpipe) 
F:file ID: cre.5/007bacon
B:CRE5.222 (gan ainm, no repeats)
M:4/4
%%Q:140
R:hornpipe
K:C
ef|gece dBGB|cBBA G2EF|GcBc Adcd|B2G2 G2ef|
gece dBGB|cBBA G2cB|ABcd ecdB|c2e2c2||
Bc|defd BGAB|cBcd e2de|fgag fedc|B2d2d2ef|
gece dBGB|cBBA G2cB|ABcd ecdB|c2e2c2|]

%%%

